X:2987
T:Chips & Shavins. HSJJ.138
M:4/4
L:1/8
Q:180
S:HSJ Jackson,Wyresdale,Lancs.1823
R:Reel
O:England
A:Lancashire
H:1823
Z:Chris Partington.
K:D
dAFDG2F-E|DFAF GFFc|dAFDG2FE|DFAG FDD2:|!
|:dfafg2fe|dfaf geef|dfafg2fe|dBAG FDD2|!
dfafg2fe|dfaf ge ef/-g/|afge fdec|dBAG FDD2:|]


